X: 34692
T: Road To Errogie, The
R: reel
M: 4/4
K: Amajor
AF|EA A/A/A BABc|eA A/A/A cefa|f2 fa ecAc|BABc BAFA|
EA A/A/A BABc|eA A/A/A cefa|f2 fa ecAc|BABc A2:|
|:ce|{f}a3 a- aaba|c'3 b a2 ae|f2 ea- aef2-|feae fece|
{f}a3 a- aaba|c'3 b a2 ae|fa a/a/a ecAc|BABc A2:|

